public/icons/svg/magic.svg

<svg fill="none" height="36" viewBox="0 0 41 36" width="41" xmlns="http://www.w3.org/2000/svg"><path d="m40.5 22.5c0 .3978-.1581.7794-.4394 1.0607s-.6628.4393-1.0606.4393h-3v3c0 .3978-.1581.7794-.4394 1.0607s-.6628.4393-1.0606.4393c-.3979 0-.7794-.158-1.0607-.4393s-.4393-.6629-.4393-1.0607v-3h-3c-.3979 0-.7794-.158-1.0607-.4393s-.4393-.6629-.4393-1.0607.158-.7794.4393-1.0607.6628-.4393 1.0607-.4393h3v-3c0-.3978.158-.7794.4393-1.0607s.6628-.4393 1.0607-.4393c.3978 0 .7793.158 1.0606.4393s.4394.6629.4394 1.0607v3h3c.3978 0 .7793.158 1.0606.4393s.4394.6629.4394 1.0607zm-36.00004-15h3v3c0 .3978.15803.7794.43934 1.0607.2813.2813.66283.4393 1.06066.4393.39782 0 .77935-.158 1.06064-.4393.2813-.2813.4394-.6629.4394-1.0607v-3h3c.3978 0 .7793-.15804 1.0606-.43934s.4394-.66284.4394-1.06066-.1581-.77936-.4394-1.06066-.6628-.43934-1.0606-.43934h-3v-3c0-.39782-.1581-.779355-.4394-1.06066-.28129-.281304-.66282-.43934-1.06064-.43934-.39783 0-.77936.158036-1.06066.43934-.28131.281305-.43934.66284-.43934 1.06066v3h-3c-.39783 0-.77936.15804-1.06066.43934-.28131.2813-.43934.66284-.43934 1.06066s.15803.77936.43934 1.06066c.2813.2813.66283.43934 1.06066.43934zm24.00004 22.5h-1.5v-1.5c0-.3978-.1581-.7794-.4394-1.0607s-.6628-.4393-1.0606-.4393c-.3979 0-.7794.158-1.0607.4393s-.4393.6629-.4393 1.0607v1.5h-1.5c-.3979 0-.7794.158-1.0607.4393s-.4393.6629-.4393 1.0607.158.7794.4393 1.0607.6628.4393 1.0607.4393h1.5v1.5c0 .3978.158.7794.4393 1.0607s.6628.4393 1.0607.4393c.3978 0 .7793-.158 1.0606-.4393s.4394-.6629.4394-1.0607v-1.5h1.5c.3978 0 .7793-.158 1.0606-.4393s.4394-.6629.4394-1.0607-.1581-.7794-.4394-1.0607-.6628-.4393-1.0606-.4393zm6.6206-21-26.12064 26.1206c-.56256.5622-1.32532.878-2.12063.878s-1.55807-.3158-2.12062-.878l-3.881253-3.8775c-.278648-.2786-.499688-.6093-.650495-.9733-.1508069-.364-.22842684-.7542-.22842684-1.1482 0-.3941.07761994-.7842.22842684-1.1482.150807-.3641.371847-.6948.650495-.9734l26.122543-26.120625c.2785-.278649.6093-.499688.9733-.650495.364-.1508065.7542-.22842653 1.1482-.22842653s.7842.07762003 1.1482.22842653c.3641.150807.6948.371846.9734.650495l3.8775 3.877505c.2786.27858.4997.60933.6505.97335s.2284.75418.2284 1.14821c0 .39402-.0776.78418-.2284 1.14821-.1508.36402-.3719.69477-.6505.97335zm-10.2431 6-3.8775-3.8794-18.00004 18 3.8775 3.8794zm8.1225-8.12062-3.8794-3.87938-6 6 3.8794 3.8794z"/></svg>

<svg width="41" height="36" viewBox="0 0 41 36" fill="none" xmlns="http://www.w3.org/2000/svg">
<path d="M40.5 22.5C40.5 22.8978 40.3419 23.2794 40.0606 23.5607C39.7793 23.842 39.3978 24 39 24H36V27C36 27.3978 35.8419 27.7794 35.5606 28.0607C35.2793 28.342 34.8978 28.5 34.5 28.5C34.1021 28.5 33.7206 28.342 33.4393 28.0607C33.158 27.7794 33 27.3978 33 27V24H30C29.6021 24 29.2206 23.842 28.9393 23.5607C28.658 23.2794 28.5 22.8978 28.5 22.5C28.5 22.1022 28.658 21.7206 28.9393 21.4393C29.2206 21.158 29.6021 21 30 21H33V18C33 17.6022 33.158 17.2206 33.4393 16.9393C33.7206 16.658 34.1021 16.5 34.5 16.5C34.8978 16.5 35.2793 16.658 35.5606 16.9393C35.8419 17.2206 36 17.6022 36 18V21H39C39.3978 21 39.7793 21.158 40.0606 21.4393C40.3419 21.7206 40.5 22.1022 40.5 22.5ZM4.49996 7.5H7.49996V10.5C7.49996 10.8978 7.65799 11.2794 7.9393 11.5607C8.2206 11.842 8.60213 12 8.99996 12C9.39778 12 9.77931 11.842 10.0606 11.5607C10.3419 11.2794 10.5 10.8978 10.5 10.5V7.5H13.5C13.8978 7.5 14.2793 7.34196 14.5606 7.06066C14.8419 6.77936 15 6.39782 15 6C15 5.60218 14.8419 5.22064 14.5606 4.93934C14.2793 4.65804 13.8978 4.5 13.5 4.5H10.5V1.5C10.5 1.10218 10.3419 0.720645 10.0606 0.43934C9.77931 0.158036 9.39778 0 8.99996 0C8.60213 0 8.2206 0.158036 7.9393 0.43934C7.65799 0.720645 7.49996 1.10218 7.49996 1.5V4.5H4.49996C4.10213 4.5 3.7206 4.65804 3.4393 4.93934C3.15799 5.22064 2.99996 5.60218 2.99996 6C2.99996 6.39782 3.15799 6.77936 3.4393 7.06066C3.7206 7.34196 4.10213 7.5 4.49996 7.5ZM28.5 30H27V28.5C27 28.1022 26.8419 27.7206 26.5606 27.4393C26.2793 27.158 25.8978 27 25.5 27C25.1021 27 24.7206 27.158 24.4393 27.4393C24.158 27.7206 24 28.1022 24 28.5V30H22.5C22.1021 30 21.7206 30.158 21.4393 30.4393C21.158 30.7206 21 31.1022 21 31.5C21 31.8978 21.158 32.2794 21.4393 32.5607C21.7206 32.842 22.1021 33 22.5 33H24V34.5C24 34.8978 24.158 35.2794 24.4393 35.5607C24.7206 35.842 25.1021 36 25.5 36C25.8978 36 26.2793 35.842 26.5606 35.5607C26.8419 35.2794 27 34.8978 27 34.5V33H28.5C28.8978 33 29.2793 32.842 29.5606 32.5607C29.8419 32.2794 30 31.8978 30 31.5C30 31.1022 29.8419 30.7206 29.5606 30.4393C29.2793 30.158 28.8978 30 28.5 30ZM35.1206 9L8.99996 35.1206C8.4374 35.6828 7.67464 35.9986 6.87933 35.9986C6.08402 35.9986 5.32126 35.6828 4.75871 35.1206L0.877457 31.2431C0.598809 30.9645 0.377769 30.6338 0.226962 30.2698C0.0761551 29.9058 -0.00146484 29.5156 -0.00146484 29.1216C-0.00146484 28.7275 0.0761551 28.3374 0.226962 27.9734C0.377769 27.6093 0.598809 27.2786 0.877457 27L27 0.879375C27.2785 0.600726 27.6093 0.379687 27.9733 0.22888C28.3373 0.0780735 28.7275 0.000453472 29.1215 0.000453472C29.5155 0.000453472 29.9057 0.0780735 30.2697 0.22888C30.6338 0.379687 30.9645 0.600726 31.2431 0.879375L35.1206 4.75688C35.3992 5.03546 35.6203 5.36621 35.7711 5.73023C35.9219 6.09425 35.9995 6.48441 35.9995 6.87844C35.9995 7.27246 35.9219 7.66262 35.7711 8.02665C35.6203 8.39067 35.3992 8.72142 35.1206 9ZM24.8775 15L21 11.1206L2.99996 29.1206L6.87746 33L24.8775 15ZM33 6.87938L29.1206 3L23.1206 9L27 12.8794L33 6.87938Z" />
</svg>
